X: 1244
T: An Dro Nevez
R: reel
M: 4/4
K: Eminor
|:"Em"E2EE B2>B2|B2E2 "D"A2>A2|A2AB A2AF|1 G2F2 "Em"E2>D2:|2 G2F2 "Em"E2>F2||
|:"Em"G2B2 "D"A2AF|G2A2 "Em"EBEF|G2B2 "D"A2AF|1 G2F2 "Em"E2>F2:|2 G2F2 "Em"E2>B2||
|:"Em"B2B2 c2B2|"D"A2BA G2G2|"Em"E2EE B2cB|"D"F2FG A2BA|"D"F2FG A2BA|G2F2 "Em"E2>B2:|

